X: 18
T: German
M: C |
L: 1/8
B: The Orography of Thoinot Arbeau (Lengres, France, 1589)
F: http: //graner.net/nicolas/arbeau/orcheso.abc
N: for more information: http://graner.net/nicolas/arbeau/
Z: Nicolas Graner <arbeau@graner.name> Sep. 2001
K: F
F2 FF G2 GG AF GA B2 B2 | B2 d2 c3B AF GG F2 F2 | BA GF BA GF |
 B2 d2 c3B AF GG F2 F2 || F2 F2 G2 G2 A2 A2 B2 B2 | B2 d2 c2 B2 A2 G2 F2 F2 ||

